X:1
T:Belgrade, 87.87 D
T:Belgrade, 87.87 D
T:Robert Frederick Smith, 1894
T:Public Domain Courtesy of the Cyber Hymnal™
C:Robert Frederick Smith, 1894
Z:Public Domain
Z:Courtesy of the Cyber Hymnal™
%%score ( 1 2 ) ( 3 4 )
L:1/8
Q:1/4=105
M:none
K:D
V:1 treble 
V:2 treble 
V:3 bass 
V:4 bass 
V:1
 (DE) (FG) [FA]2 [DF]2 | E2 ([EA][FB]) [Gc]2 [GA]2 | [Fd]2 (cB) A2 ([FB][Ac]) | %3
 (dc) [GB]2 [FA]2 z2 | (DE) (FG) A2 A2 | (BA) (Bc) [Dd]2 d2 | c3 z c (ed) ([Ac][FB]) | %7
 [EA]2 [^GB]2 A2 z2 | ([CE][DF]) ([EG][FA]) [GB]2 [GB]2 | (BA) ([EG][DF]) [DF]2 [CE]2 | %10
 (F^G) (^Ac) (ed) (cB) | [FA]2 [^E^G]2 F2 z2 x | [DF]2 (ED) [EA]2 A2 (AG) (FE) [B,B]2 B2 | %13
 A2 A2 ([GB][FA]) ([EG][DF]) | [DF]2 [CE]2 D4 |] x8 |] %16
V:2
 D2 D2 x4 | (CD) x6 | x2 G2 (AG) x2 | F2 x6 | D2 D2 (CD) (EF) | D2 D2 x (DG) x | (GF) (G2 F2) x3 | %7
 x4 A2 x2 | x8 | F2 x6 | C2 F2 F2 F2 | x4 F2 x3 | x2 D2 x (DC) B,2 B,2 x (ED) x2 | (CE) (FG) x4 | %14
 x4 D4 |] x8 |] %16
V:3
 (F,G,) [D,A,]2 D2 A,2 | (A,B,) (CD) [A,E]2 [A,C]2 | D2 [G,D]2 ([F,D][E,C]) ([D,D][C,E]) | %3
 D2 [G,,D]2 [D,D]2 z2 | [B,,F,]2 [B,,D]2 A,2 A,2 | G,2 G,2 ([F,A,][E,G,]) ([F,A,][G,B,]) | %6
 (C^D) z [B,D]2 ([C,E][^D,D]) x2 | [E,C]2 [E,D]2 [A,C]2 z2 | %8
 [A,,A,]2 [A,,A,]2 ([A,,C][B,,D]) ([C,E][D,D]) | [^D,=C]2 B,2 A,2 A,2 | %10
 [F,^A,]2 [E,A,]2 [D,B,]2 [D,B,]2 | C3 z B, [F,,A,]2 z2 | [D,A,]2 [D,A,]2 A,2 A,2 x8 | %13
 [E,G,]2 [E,G,]2 G,2 G,2 | ([F,A,][E,C]) [D,D]2 [G,,D]2 [G,,B,]2 |] [A,,A,]2 [A,,G,]2 [D,F,]4 |] %16
V:4
 D,2 x (D, E,) (F,G,) x | A,2 A,2 x4 | (B,A,) x6 | (B,,A,,) x6 | x4 (A,,B,,) (C,D,) | G,2 G,2 x4 | %6
 A,3 (E2 ^A,) x3 | x8 | x8 | x2 (E,G,) A,2 A,2 | x8 | C,2 C,2 x5 | x4 (D,C,) (B,,A,,) x8 | %13
 x4 (E,D,) (C,B,,) | x8 |] x8 |] %16

